Sources/FrostedUI/Resources/Icons.xcassets/plus16.imageset/plus-16.svg

<svg width="16" height="16" viewBox="0 0 16 16" fill="none" xmlns="http://www.w3.org/2000/svg" data-fui-icon="true">
  <path
    d="M8 1C8.41421 1 8.75 1.33579 8.75 1.75V7.25H14.25C14.6642 7.25 15 7.58579 15 8C15 8.41421 14.6642 8.75 14.25 8.75H8.75V14.25C8.75 14.6642 8.41421 15 8 15C7.58579 15 7.25 14.6642 7.25 14.25V8.75H1.75C1.33579 8.75 1 8.41421 1 8C1 7.58579 1.33579 7.25 1.75 7.25H7.25V1.75C7.25 1.33579 7.58579 1 8 1Z"
    fill="currentColor"
  />
</svg>

<svg xmlns="http://www.w3.org/2000/svg" width="16" height="16" fill="none" data-fui-icon="true" viewBox="0 0 16 16"><path fill="currentColor" d="M8 1a.75.75 0 0 1 .75.75v5.5h5.5a.75.75 0 0 1 0 1.5h-5.5v5.5a.75.75 0 0 1-1.5 0v-5.5h-5.5a.75.75 0 0 1 0-1.5h5.5v-5.5A.75.75 0 0 1 8 1"/></svg>
